app/images/icon/logo-footer.svg

<svg width="145" height="52" viewBox="0 0 145 52" fill="none" xmlns="http://www.w3.org/2000/svg">
<rect x="1" y="1" width="50" height="50" rx="3" stroke="white" stroke-width="2"/>
<path d="M78.71 11.4V24H75.488V14.514H72.212V24H68.99V11.4H78.71ZM86.925 15H89.913V24H86.925V23.172C86.313 23.892 85.461 24.252 84.369 24.252C83.169 24.252 82.161 23.802 81.345 22.902C80.541 21.99 80.139 20.856 80.139 19.5C80.139 18.144 80.541 17.016 81.345 16.116C82.161 15.204 83.169 14.748 84.369 14.748C85.461 14.748 86.313 15.108 86.925 15.828V15ZM83.667 20.922C84.015 21.282 84.471 21.462 85.035 21.462C85.599 21.462 86.055 21.282 86.403 20.922C86.751 20.562 86.925 20.088 86.925 19.5C86.925 18.912 86.751 18.438 86.403 18.078C86.055 17.718 85.599 17.538 85.035 17.538C84.471 17.538 84.015 17.718 83.667 18.078C83.319 18.438 83.145 18.912 83.145 19.5C83.145 20.088 83.319 20.562 83.667 20.922ZM95.9837 24.252C94.6157 24.252 93.4757 23.796 92.5637 22.884C91.6517 21.972 91.1957 20.844 91.1957 19.5C91.1957 18.156 91.6517 17.028 92.5637 16.116C93.4757 15.204 94.6157 14.748 95.9837 14.748C96.8717 14.748 97.6757 14.958 98.3957 15.378C99.1277 15.798 99.6917 16.362 100.088 17.07L97.5317 18.546C97.2077 17.958 96.6857 17.664 95.9657 17.664C95.4617 17.664 95.0417 17.838 94.7057 18.186C94.3697 18.522 94.2017 18.96 94.2017 19.5C94.2017 20.04 94.3697 20.484 94.7057 20.832C95.0417 21.168 95.4617 21.336 95.9657 21.336C96.7097 21.336 97.2317 21.036 97.5317 20.436L100.088 21.912C99.6917 22.632 99.1277 23.202 98.3957 23.622C97.6757 24.042 96.8717 24.252 95.9837 24.252ZM109.672 15V24H106.684V17.826H104.038V24H101.05V15H109.672ZM115.759 24.252C114.427 24.252 113.293 23.796 112.357 22.884C111.421 21.96 110.953 20.832 110.953 19.5C110.953 18.168 111.421 17.046 112.357 16.134C113.293 15.21 114.427 14.748 115.759 14.748C117.103 14.748 118.237 15.21 119.161 16.134C120.097 17.046 120.565 18.168 120.565 19.5C120.565 20.832 120.097 21.96 119.161 22.884C118.237 23.796 117.103 24.252 115.759 24.252ZM115.759 21.372C116.287 21.372 116.719 21.198 117.055 20.85C117.403 20.502 117.577 20.052 117.577 19.5C117.577 18.948 117.403 18.498 117.055 18.15C116.719 17.802 116.287 17.628 115.759 17.628C115.243 17.628 114.811 17.802 114.463 18.15C114.127 18.498 113.959 18.948 113.959 19.5C113.959 20.052 114.127 20.502 114.463 20.85C114.811 21.198 115.243 21.372 115.759 21.372ZM127.424 14.748C128.624 14.748 129.626 15.204 130.43 16.116C131.246 17.016 131.654 18.144 131.654 19.5C131.654 20.856 131.246 21.99 130.43 22.902C129.626 23.802 128.624 24.252 127.424 24.252C126.332 24.252 125.48 23.892 124.868 23.172V27.6H121.88V15H124.868V15.828C125.48 15.108 126.332 14.748 127.424 14.748ZM125.39 20.922C125.738 21.282 126.194 21.462 126.758 21.462C127.322 21.462 127.778 21.282 128.126 20.922C128.474 20.562 128.648 20.088 128.648 19.5C128.648 18.912 128.474 18.438 128.126 18.078C127.778 17.718 127.322 17.538 126.758 17.538C126.194 17.538 125.738 17.718 125.39 18.078C125.042 18.438 124.868 18.912 124.868 19.5C124.868 20.088 125.042 20.562 125.39 20.922ZM140.125 15V17.862H137.551V24H134.563V17.862H131.953V15H140.125ZM81.842 28.4V41H78.638V34.214L75.578 39.272H75.254L72.212 34.232V41H68.99V28.4H72.212L75.416 33.782L78.638 28.4H81.842ZM96.0115 31.226C96.9955 32.126 97.4875 33.284 97.4875 34.7C97.4875 36.116 96.9955 37.28 96.0115 38.192C95.0275 39.092 93.6595 39.65 91.9075 39.866V41.36H88.8115V39.866C87.0595 39.65 85.6855 39.092 84.6895 38.192C83.7055 37.28 83.2135 36.116 83.2135 34.7C83.2135 33.284 83.7055 32.126 84.6895 31.226C85.6855 30.314 87.0595 29.75 88.8115 29.534V28.04H91.9075V29.534C93.6595 29.75 95.0275 30.314 96.0115 31.226ZM86.4355 34.7C86.4355 35.948 87.2275 36.686 88.8115 36.914V32.432C87.9955 32.552 87.3955 32.798 87.0115 33.17C86.6275 33.542 86.4355 34.052 86.4355 34.7ZM91.9075 36.914C92.7235 36.794 93.3235 36.554 93.7075 36.194C94.0915 35.822 94.2835 35.324 94.2835 34.7C94.2835 34.052 94.0915 33.542 93.7075 33.17C93.3235 32.798 92.7235 32.552 91.9075 32.432V36.914ZM108.72 37.886H110.16V43.412H106.938V41H98.8377V28.4H102.15V37.886H105.426V28.4H108.72V37.886Z" fill="white"/>
<path d="M35.7309 11H32.1669H14V41H32.1669H35.7309C37.3713 41 38.7059 39.6679 38.7059 38.0305V13.9695C38.7059 12.3321 37.3713 11 35.7309 11V11ZM15.7647 39.2353V12.7647H32.1669C32.8533 12.7647 33.4118 13.3052 33.4118 13.9695V38.0304C33.4118 38.6948 32.8533 39.2352 32.1669 39.2352H15.7647V39.2353ZM36.9412 38.0305C36.9412 38.6948 36.3982 39.2353 35.7309 39.2353H34.9166C35.0831 38.8668 35.1765 38.4593 35.1765 38.0305V13.9695C35.1765 13.5407 35.0831 13.1332 34.9166 12.7647H35.7309C36.3982 12.7647 36.9412 13.3052 36.9412 13.9695V38.0305Z" fill="white"/>
<path d="M24.5882 14.5293C20.696 14.5293 17.5294 17.6959 17.5294 21.5881C17.5294 25.4804 20.696 28.6469 24.5882 28.6469C28.4805 28.6469 31.6471 25.4804 31.6471 21.5881C31.6471 17.6959 28.4805 14.5293 24.5882 14.5293ZM29.8084 20.7058H27.8003C27.7271 19.2872 27.4784 17.967 27.081 16.9188C28.4987 17.6787 29.532 19.0653 29.8084 20.7058ZM24.5882 26.8822C24.4904 26.8822 24.1097 26.5882 23.7489 25.6414C23.4259 24.7935 23.2141 23.6705 23.1437 22.4705H26.0328C25.9624 23.6705 25.7505 24.7935 25.4275 25.6414C25.0668 26.5882 24.6861 26.8822 24.5882 26.8822V26.8822ZM23.1437 20.7058C23.2141 19.5057 23.426 18.3828 23.7489 17.5348C24.1097 16.5881 24.4904 16.294 24.5882 16.294C24.6861 16.294 25.0668 16.5881 25.4275 17.5348C25.7505 18.3828 25.9624 19.5057 26.0328 20.7058H23.1437ZM22.0955 16.9188C21.6981 17.967 21.4494 19.2872 21.3762 20.7058H19.3681C19.6445 19.0653 20.6778 17.6787 22.0955 16.9188V16.9188ZM19.3681 22.4705H21.3762C21.4494 23.8891 21.6981 25.2092 22.0955 26.2575C20.6778 25.4976 19.6445 24.1109 19.3681 22.4705ZM27.081 26.2575C27.4784 25.2092 27.7271 23.8891 27.8003 22.4705H29.8084C29.532 24.1109 28.4987 25.4976 27.081 26.2575Z" fill="white"/>
<path d="M20.1765 31.2939H29V33.0587H20.1765V31.2939Z" fill="white"/>
<path d="M21.9412 34.8232H27.2353V36.5879H21.9412V34.8232Z" fill="white"/>
</svg>

<svg width="145" height="52" fill="none" xmlns="http://www.w3.org/2000/svg">
    <rect x="1" y="1" width="50" height="50" rx="3" stroke="#fff" stroke-width="2"/>
    <path d="M78.71 11.4V24h-3.222v-9.486h-3.276V24H68.99V11.4h9.72Zm8.215 3.6h2.988v9h-2.988v-.828c-.612.72-1.464 1.08-2.556 1.08-1.2 0-2.208-.45-3.024-1.35-.804-.912-1.206-2.046-1.206-3.402 0-1.356.402-2.484 1.206-3.384.816-.912 1.824-1.368 3.024-1.368 1.092 0 1.944.36 2.556 1.08V15Zm-3.258 5.922c.348.36.804.54 1.368.54.564 0 1.02-.18 1.368-.54.348-.36.522-.834.522-1.422s-.174-1.062-.522-1.422c-.348-.36-.804-.54-1.368-.54-.564 0-1.02.18-1.368.54-.348.36-.522.834-.522 1.422s.174 1.062.522 1.422Zm12.317 3.33c-1.368 0-2.508-.456-3.42-1.368-.912-.912-1.368-2.04-1.368-3.384 0-1.344.456-2.472 1.368-3.384.912-.912 2.052-1.368 3.42-1.368.888 0 1.692.21 2.412.63a4.41 4.41 0 0 1 1.692 1.692l-2.556 1.476c-.324-.588-.846-.882-1.566-.882a1.68 1.68 0 0 0-1.26.522c-.336.336-.504.774-.504 1.314s.168.984.504 1.332c.336.336.756.504 1.26.504.744 0 1.266-.3 1.566-.9l2.556 1.476c-.396.72-.96 1.29-1.692 1.71-.72.42-1.524.63-2.412.63ZM109.672 15v9h-2.988v-6.174h-2.646V24h-2.988v-9h8.622Zm6.087 9.252c-1.332 0-2.466-.456-3.402-1.368-.936-.924-1.404-2.052-1.404-3.384 0-1.332.468-2.454 1.404-3.366.936-.924 2.07-1.386 3.402-1.386 1.344 0 2.478.462 3.402 1.386.936.912 1.404 2.034 1.404 3.366 0 1.332-.468 2.46-1.404 3.384-.924.912-2.058 1.368-3.402 1.368Zm0-2.88c.528 0 .96-.174 1.296-.522.348-.348.522-.798.522-1.35s-.174-1.002-.522-1.35c-.336-.348-.768-.522-1.296-.522-.516 0-.948.174-1.296.522-.336.348-.504.798-.504 1.35s.168 1.002.504 1.35c.348.348.78.522 1.296.522Zm11.665-6.624c1.2 0 2.202.456 3.006 1.368.816.9 1.224 2.028 1.224 3.384 0 1.356-.408 2.49-1.224 3.402-.804.9-1.806 1.35-3.006 1.35-1.092 0-1.944-.36-2.556-1.08V27.6h-2.988V15h2.988v.828c.612-.72 1.464-1.08 2.556-1.08Zm-2.034 6.174c.348.36.804.54 1.368.54.564 0 1.02-.18 1.368-.54.348-.36.522-.834.522-1.422s-.174-1.062-.522-1.422c-.348-.36-.804-.54-1.368-.54-.564 0-1.02.18-1.368.54-.348.36-.522.834-.522 1.422s.174 1.062.522 1.422ZM140.125 15v2.862h-2.574V24h-2.988v-6.138h-2.61V15h8.172ZM81.842 28.4V41h-3.204v-6.786l-3.06 5.058h-.324l-3.042-5.04V41H68.99V28.4h3.222l3.204 5.382 3.222-5.382h3.204Zm14.17 2.826c.984.9 1.475 2.058 1.475 3.474 0 1.416-.491 2.58-1.475 3.492-.984.9-2.353 1.458-4.105 1.674v1.494h-3.096v-1.494c-1.752-.216-3.126-.774-4.122-1.674-.983-.912-1.475-2.076-1.475-3.492s.492-2.574 1.475-3.474c.997-.912 2.37-1.476 4.123-1.692V28.04h3.096v1.494c1.751.216 3.12.78 4.103 1.692ZM86.435 34.7c0 1.248.791 1.986 2.375 2.214v-4.482c-.816.12-1.416.366-1.8.738-.383.372-.575.882-.575 1.53Zm5.471 2.214c.817-.12 1.416-.36 1.8-.72.385-.372.577-.87.577-1.494 0-.648-.193-1.158-.577-1.53-.383-.372-.983-.618-1.8-.738v4.482Zm16.813.972h1.44v5.526h-3.222V41h-8.1V28.4h3.312v9.486h3.276V28.4h3.294v9.486ZM35.73 11H14v30h21.731a2.976 2.976 0 0 0 2.975-2.97V13.97A2.976 2.976 0 0 0 35.73 11ZM15.766 39.235v-26.47h16.402c.686 0 1.245.54 1.245 1.204V38.03c0 .665-.559 1.205-1.245 1.205H15.765Zm21.176-1.204c0 .664-.543 1.204-1.21 1.204h-.814c.166-.368.26-.776.26-1.204V13.97c0-.43-.094-.837-.26-1.205h.814c.667 0 1.21.54 1.21 1.204v24.062Z" fill="#fff"/>
    <path d="M24.588 14.53a7.067 7.067 0 0 0-7.059 7.058 7.067 7.067 0 0 0 7.06 7.059 7.067 7.067 0 0 0 7.058-7.059 7.067 7.067 0 0 0-7.059-7.059Zm5.22 6.176H27.8c-.073-1.419-.322-2.739-.719-3.787a5.309 5.309 0 0 1 2.727 3.787Zm-5.22 6.176c-.098 0-.478-.294-.84-1.24-.322-.848-.534-1.971-.604-3.171h2.889c-.07 1.2-.283 2.323-.606 3.17-.36.947-.74 1.241-.839 1.241Zm-1.444-6.176c.07-1.2.282-2.323.605-3.171.36-.947.741-1.241.84-1.241.097 0 .478.294.838 1.24.323.849.535 1.972.606 3.172h-2.89Zm-1.048-3.787c-.398 1.048-.647 2.368-.72 3.787h-2.008a5.309 5.309 0 0 1 2.728-3.787Zm-2.728 5.552h2.008c.073 1.418.322 2.738.72 3.787a5.31 5.31 0 0 1-2.728-3.787Zm7.713 3.787c.397-1.049.646-2.369.72-3.787h2.007a5.31 5.31 0 0 1-2.727 3.787ZM20.177 31.294H29v1.765h-8.823v-1.765ZM21.941 34.823h5.294v1.765h-5.294v-1.765Z" fill="#fff"/>
</svg>
